remix/System/refresh-line.svg

<svg viewBox="0 0 24 24" fill="currentColor" xmlns="http://www.w3.org/2000/svg"><path d="M5.46257 4.43262C7.21556 2.91688 9.5007 2 12 2C17.5228 2 22 6.47715 22 12C22 14.1361 21.3302 16.1158 20.1892 17.7406L17 12H20C20 7.58172 16.4183 4 12 4C9.84982 4 7.89777 4.84827 6.46023 6.22842L5.46257 4.43262ZM18.5374 19.5674C16.7844 21.0831 14.4993 22 12 22C6.47715 22 2 17.5228 2 12C2 9.86386 2.66979 7.88416 3.8108 6.25944L7 12H4C4 16.4183 7.58172 20 12 20C14.1502 20 16.1022 19.1517 17.5398 17.7716L18.5374 19.5674Z"/></svg>

<svg viewBox="0 0 24 24" xmlns="http://www.w3.org/2000/svg"><path fill="none" d="M0 0h24v24H0Z"/><path d="M5.463 4.43l0 0c1.81-1.58 4.13-2.44 6.53-2.44 5.523 0 10 4.477 10 10 0 2.13-.67 4.11-1.81 5.74l-3.19-5.74h3v0c0-4.42-3.59-8.01-8-8.01 -2.07-.01-4.06.79-5.55 2.22l-1-1.795Zm13.07 15.134v0c-1.82 1.57-4.14 2.43-6.54 2.433 -5.523 0-10-4.477-10-10 0-2.14.67-4.116 1.81-5.74l3.19 5.74h-3v0c-.01 4.41 3.58 8 7.99 8 2.06 0 4.05-.8 5.54-2.23l.99 1.79Z"/></svg>
